images/craft-cms-logo.svg

<svg height="55" viewBox="0 0 220 55" width="220" xmlns="http://www.w3.org/2000/svg"><path d="m76.1875 32.5625c-3.625 0-5.625-2.3125-5.125-5.625.5625-3.375 3.3125-5.625 6.875-5.625 1.875 0 3.5625.875 4.5625 2.1875l3.5-2.875c-1.875-2.125-4.5625-3.1875-7.4375-3.1875-5.875 0-11 3.9375-11.875 9.5-.875 5.625 2.875 9.5 8.8125 9.5 3 0 6-1.25 8.625-3.3125l-2.5-2.875c-1.8125 1.625-3.6875 2.3125-5.4375 2.3125m23.5-14.9375s-.75-.125-.8125-.125c-.8125-.125-1.6875-.0625-2.5 0-.75.0625-1.5.1875-2.25.4375-.625.1875-1.3125.4375-1.875.8125l.125-.875h-4.25l-2.875 18.125h4.25l1.6875-10.5625c.0625-.625.3125-1.1875.625-1.6875s.75-.9375 1.25-1.25c.5-.375 1-.625 1.5625-.8125s1.125-.3125 1.75-.375c.8125-.0625 1.6875 0 2.5.1875h.0625c.125 0 .75-3.875.75-3.875m14.875 1.375c-1.1875-1-3-1.5625-5.125-1.5625-5.3125 0-10.125 3.8125-11.0625 9.4375-.875 5.625 2.8125 9.4375 7.9375 9.4375 2.3125 0 4.25-.3125 5.875-1.4375l-.125 1h3.875l2.8125-18h-4zm-.875 7.875c-.5625 3.4375-3.125 5.8125-6.4375 5.8125-3.375 0-5.3125-2.5-4.75-5.875s3.25-5.75 6.5625-5.75c3.3125.0625 5.125 2.375 4.625 5.8125zm24.6875-9 .8125-5.125-4.875 3.5-.25 1.6875h-5.5l.5625-3.4375c.3125-1.625 2.0625-1.5625 2.0625-1.5625h2.0625l.625-3.75h-2.375-.5625c-5.8125 0-6 4.5-6 4.5l-.375 2.125-.3125 2.125h-.375l-4.75 3.75h4.5l-2.875 18.3125h4.375l2.875-18.375h5.5l-2.25 14.375h4.3125l2.25-14.375h5.375l.625-3.75zm11.5625 9.0625c.875-5.5625 5.9375-9.5 11.875-9.5 2.875 0 5.5625 1.125 7.4375 3.1875l-3.5 2.875c-1-1.3125-2.6875-2.1875-4.5625-2.1875-3.5625 0-6.3125 2.3125-6.875 5.625-.5 3.3125 1.5 5.625 5.125 5.625 1.75 0 3.625-.6875 5.4375-2.3125l2.5 2.875c-2.625 2.125-5.625 3.3125-8.625 3.3125-5.9375 0-9.6875-3.875-8.8125-9.5m50.625-1.9375-1.6875 11h-4.25l1.6875-10.6875c.4375-2.5-.9375-4-3.375-4-2.5625 0-5.125 1.5625-5.5 4.125l-1.6875 10.5625h-4.25l1.6875-10.6875c.375-2.4375-1.0625-3.9375-3.375-4-2.375.125-5.125 1.625-5.5 4.125l-1.6875 10.5625h-4.25l2.875-18.125h4.25l-.125.875c1.4375-.875 3.0625-1.25 5.125-1.3125h.375c2.625 0 4.75 1.0625 5.875 2.875 1.75-1.8125 4.4375-2.875 7.125-2.875 4.625 0 7.4375 3.0625 6.6875 7.5625m-.1875 8.8125 2.625-3.25c1.4375 1.125 4.1875 2 6.5 2 2.125 0 4.25-.4375 4.5-1.875.1875-1.125-1.875-1.5-4.1875-1.875-4.8125-.8125-7.25-1.8125-6.75-5.4375.75-4.5625 5.4375-5.875 9.3125-5.875 2.75 0 5.625.9375 7.5625 2.25l-2.625 3.25c-1.5-.9375-3.4375-1.625-5.625-1.625-2.5625 0-4.0625.75-4.25 1.9375-.125.8125.5625 1.125 3.5625 1.625 4.375.75 8 1.4375 7.3125 5.625-.5625 3.8125-4.4375 5.9375-9.5 5.9375-2.8125-.0625-6.4375-1.0625-8.4375-2.6875m-152.5625-33.8125h-42.1875c-3.125 0-5.625 2.5-5.625 5.625v42.1875c0 3.125 2.5 5.625 5.625 5.625h42.1875c3.0625 0 5.625-2.5 5.625-5.625v-42.1875c0-3.125-2.5-5.625-5.625-5.625m-21.1875 32.5625c1.75 0 3.625-.6875 5.4375-2.3125l2.5 2.875c-2.625 2.125-5.625 3.3125-8.625 3.3125-5.9375 0-9.6875-3.9375-8.8125-9.5s5.9375-9.5 11.875-9.5c2.875 0 5.5625 1.125 7.4375 3.1875l-3.5 2.875c-1-1.3125-2.6875-2.1875-4.5625-2.1875-3.5625 0-6.3125 2.3125-6.875 5.625-.5 3.3125 1.5 5.625 5.125 5.625" fill="#e5422b" transform="translate(0 .6)"/></svg>

<svg xmlns="http://www.w3.org/2000/svg" width="220" height="55" viewBox="0 0 220 55">
  <path fill="#E5422B" d="M76.1875 32.5625C72.5625 32.5625 70.5625 30.25 71.0625 26.9375 71.625 23.5625 74.375 21.3125 77.9375 21.3125 79.8125 21.3125 81.5 22.1875 82.5 23.5L86 20.625C84.125 18.5 81.4375 17.4375 78.5625 17.4375 72.6875 17.4375 67.5625 21.375 66.6875 26.9375 65.8125 32.5625 69.5625 36.4375 75.5 36.4375 78.5 36.4375 81.5 35.1875 84.125 33.125L81.625 30.25C79.8125 31.875 77.9375 32.5625 76.1875 32.5625M99.6875 17.625C99.6875 17.625 98.9375 17.5 98.875 17.5 98.0625 17.375 97.1875 17.4375 96.375 17.5 95.625 17.5625 94.875 17.6875 94.125 17.9375 93.5 18.125 92.8125 18.375 92.25 18.75L92.375 17.875 88.125 17.875 85.25 36 89.5 36 91.1875 25.4375C91.25 24.8125 91.5 24.25 91.8125 23.75 92.125 23.25 92.5625 22.8125 93.0625 22.5 93.5625 22.125 94.0625 21.875 94.625 21.6875 95.1875 21.5 95.75 21.375 96.375 21.3125 97.1875 21.25 98.0625 21.3125 98.875 21.5 98.875 21.5 98.9375 21.5 98.9375 21.5 99.0625 21.5 99.6875 17.625 99.6875 17.625M114.5625 19C113.375 18 111.5625 17.4375 109.4375 17.4375 104.125 17.4375 99.3125 21.25 98.375 26.875 97.5 32.5 101.1875 36.3125 106.3125 36.3125 108.625 36.3125 110.5625 36 112.1875 34.875L112.0625 35.875 115.9375 35.875 118.75 17.875 114.75 17.875 114.5625 19zM113.6875 26.875L113.6875 26.875C113.125 30.3125 110.5625 32.6875 107.25 32.6875 103.875 32.6875 101.9375 30.1875 102.5 26.8125 103.0625 23.4375 105.75 21.0625 109.0625 21.0625 112.375 21.125 114.1875 23.4375 113.6875 26.875L113.6875 26.875zM138.375 17.875L139.1875 12.75 134.3125 16.25 134.0625 17.9375 128.5625 17.9375 129.125 14.5C129.4375 12.875 131.1875 12.9375 131.1875 12.9375L133.25 12.9375 133.875 9.1875 131.5 9.1875 130.9375 9.1875C125.125 9.1875 124.9375 13.6875 124.9375 13.6875L124.5625 15.8125 124.25 17.9375 123.875 17.9375 119.125 21.6875 123.625 21.6875 120.75 40 125.125 40 128 21.625 133.5 21.625 131.25 36 135.5625 36 137.8125 21.625 143.1875 21.625 143.8125 17.875 138.375 17.875zM149.9375 26.9375C150.8125 21.375 155.875 17.4375 161.8125 17.4375 164.6875 17.4375 167.375 18.5625 169.25 20.625L165.75 23.5C164.75 22.1875 163.0625 21.3125 161.1875 21.3125 157.625 21.3125 154.875 23.625 154.3125 26.9375 153.8125 30.25 155.8125 32.5625 159.4375 32.5625 161.1875 32.5625 163.0625 31.875 164.875 30.25L167.375 33.125C164.75 35.25 161.75 36.4375 158.75 36.4375 152.8125 36.4375 149.0625 32.5625 149.9375 26.9375M200.5625 25L198.875 36 194.625 36 196.3125 25.3125C196.75 22.8125 195.375 21.3125 192.9375 21.3125 190.375 21.3125 187.8125 22.875 187.4375 25.4375L185.75 36 181.5 36 183.1875 25.3125C183.5625 22.875 182.125 21.375 179.8125 21.3125 177.4375 21.4375 174.6875 22.9375 174.3125 25.4375L172.625 36 168.375 36 171.25 17.875 175.5 17.875 175.375 18.75C176.8125 17.875 178.4375 17.5 180.5 17.4375L180.875 17.4375C183.5 17.4375 185.625 18.5 186.75 20.3125 188.5 18.5 191.1875 17.4375 193.875 17.4375 198.5 17.4375 201.3125 20.5 200.5625 25M200.375 33.8125L203 30.5625C204.4375 31.6875 207.1875 32.5625 209.5 32.5625 211.625 32.5625 213.75 32.125 214 30.6875 214.1875 29.5625 212.125 29.1875 209.8125 28.8125 205 28 202.5625 27 203.0625 23.375 203.8125 18.8125 208.5 17.5 212.375 17.5 215.125 17.5 218 18.4375 219.9375 19.75L217.3125 23C215.8125 22.0625 213.875 21.375 211.6875 21.375 209.125 21.375 207.625 22.125 207.4375 23.3125 207.3125 24.125 208 24.4375 211 24.9375 215.375 25.6875 219 26.375 218.3125 30.5625 217.75 34.375 213.875 36.5 208.8125 36.5 206 36.4375 202.375 35.4375 200.375 33.8125M47.8125 0L5.625 0C2.5 0 0 2.5 0 5.625L0 47.8125C0 50.9375 2.5 53.4375 5.625 53.4375L47.8125 53.4375C50.875 53.4375 53.4375 50.9375 53.4375 47.8125L53.4375 5.625C53.4375 2.5 50.9375 0 47.8125 0M26.625 32.5625C28.375 32.5625 30.25 31.875 32.0625 30.25L34.5625 33.125C31.9375 35.25 28.9375 36.4375 25.9375 36.4375 20 36.4375 16.25 32.5 17.125 26.9375 18 21.375 23.0625 17.4375 29 17.4375 31.875 17.4375 34.5625 18.5625 36.4375 20.625L32.9375 23.5C31.9375 22.1875 30.25 21.3125 28.375 21.3125 24.8125 21.3125 22.0625 23.625 21.5 26.9375 21 30.25 23 32.5625 26.625 32.5625" transform="translate(0 .6)"/>
</svg>
